-----BEGIN PGP PUBLIC KEY BLOCK-----

mQINBFUlGs8BEAC8geW+vfaHNXJEbGKroFjgSywg1h8JBRB6XbDFoV2WWJKFlt51
d0w6U5aj4N1Xx/xpa+qPEt/oYjEouXza0JuPo0SVHhzkozSrzMjQkziSsV9NXxtp
3ioaat0MyOBQ1XAAn7tONCv8C7dpz+BrUXPrU+0Gh6+Q0nCR6wYtgj9ztzP4JdgW
fiznLQe04Ah5MB+YJEndQi12HHPUzEedX32ylmfkdxWAJ8sd+YQKRFHPWUnt8tG4
OOm1RORgW/P3oE1RN9VEqof2ekp+DMe5v7zWEPAWyxTKYEWaXw3p2Rv9v3cdGX3N
t1HnA30Iqd3PeBGKwxdf/UKO5vjbzKJZcovKOdNdtvelZYWRBVZ347MEItz1mXYa
YNrX2L2omQ0g8ujCWRnPQSCj7UEt5wTqJ2DSftrJTCbVxa8olUSz2iaQvoJIOxBW
ZiwHqXc5SUdf2tuuFYmb4y/VifN5aShZKimf0KC0jwOWPVaF1EiEzMlYscvF4aDg
DymPdb2y9+YUGW5a2dhRCCNx7g66hruN5Q0bZHfy+bkGUN+oixunPtmV7NAMIbzF
pbpfkVwh+2wlwSA1zI6CL4WG8YIwQFBWq0Mfh29c3ejII0ja3A7XhYo3TzVy5Qjt
KBSsEZRJJQ/i9hHdvNidPYi7AvdH1FQ2koKCMHdHxM1hvHZP9/2hh5UClQARAQAB
tDVHaW92YW5uaSBQZWxsZXJhbm8gPGdpb3Zhbm5pLnBlbGxlcmFub0BldmlsYWxp
djMub3JnPokCWAQTAQgAQgIbAwYLCQgHAwIGFQgCCQoLBBYCAwECHgECF4ACGQEW
IQTEm+R3Bp1qln6CqWT0y9W9Z6DxhwUCZiUSeQUJFhHRtAAKCRD0y9W9Z6Dxh/fe
D/0frjpmDAuBfpOwMqiQxBcjm20avoHqg6lxlkSkxx9ZyxjC55gNyngk8oW7zkXU
mSTC9D3sjMhPu/QGiOckVFgseINI1X5qSyPqim+QROzy7b7WWMe567gEe8r2U8r0
ejKZNgxlCaoiN8gBvAgxz2iIcvJcUxsdpc69WZC0tT7X/5yPslydTyI95u0bMDt/
Is5Z89nvfh4H0jfAkIbdQPjxKmq8yecwCsyokao53GjhTcfjJ0YxYhcICkOA0Vip
L/SLRm93AThBlelPeAKACdS8sA1a3UdZ80mz1rlIk25IRpEQKLAb8ZOST9SatK9F
KmpdhckgVP9vxjBzcC5xah7pzlj1tIObc4Lu8a2jz3IDLJbkKkdopQtYTqbSvd/T
ztlmOWxaDgjgTXeewGyo3lVIsYIYCXtsetG9ofANoRLjTJTCswOB2eQ1YLsMDhFh
k7Q1hsCAkQeCE9azYJ9lK9T4IiRaU5IrE6Z3D0dLzIuJt6UsSKOgtuwonVgZC7zH
buV84oucdwRDvKBxjowJgsjVSmdVNOpLVS+/COt8SOkokXGNSHdnMHYRuat5tgBi
DCAjXZxbIaY1ogTi8reEvDFV0cdzFWEI2QkCncUKH6fppBUW+c+aibIaTUl3dybu
L6wpFKxJU+Oo+i3H+GXRD90yvF0t1M7cpcjnolUk9LvoUohGBBARCAAGBQJVrjBZ
AAoJELhCCT3GdlQwyccAoO1Ef9hnlWaEksoTAVVWIei2LWyMAKDc+sWLkQJLRWnQ
qltKjBrK1PnPGokCPgQTAQIAKAUCVSUazwIbAwUJA8JnAAYLCQgHAwIGFQgCCQoL
BBYCAwECHgECF4AACgkQ9MvVvWeg8Yfwmg//WAisG7htbXnmK9stPcjpHaiHb/o0
31f58SMlhhrAKWokMDHxkZFzMdRh4OIRkdBUOQt0gDG4xdWv5AulmsVn3PegWFzQ
chJQIbXmdOw938iLSAustYYxVymglYWW8F6E/+yVU6JRfeAWcMzleoxpAE6NG7Mt
v/U+tgGUpcMuTwXz8dAPphfoc0rteiNomeAkLmdtShE2rN6Wt6wW5JA40Clqhzag
mVgR2bF3/4CRj1Bnjkxxza5Y5kPYHFKJWPFunJxgfQdqV8y3Y9ig09AJsmdCweK8
h93Tp6c36CR43y6sBuHxG3G+szl4TI/Hjr+/UOTtGah0ZkcYrZV52JiulBtvtbJd
AZk8tIAwcMYjA9Xn0b5XY+zTdDRfZRO09lWBRahTCA7iBhz8LIWu6yn3YN2cVvFU
4on58y0dVLGtilnlWm/oPCMxCTXxxrW13lSKarHLOBlGF4LHcfN2JCzPXj+a9Z2s
ocdDS9TVLJYDVd8pkUPDf0hPGr3HhCegDQU0+4kbAN7ltCJM32AKfxTjYHzjND7x
bfJQIV9GwQAWttkVgMC3LqeoGPa94okGwdW6LIlpfm90z5g8stjICedCVgZtCgP/
aCnrOPV6OWLredhwlcgJSO76aO3l5eDyylLrQtdyjuA4yDHJ5Qnppk9ACFLcAYh9
RaRpBT0R5OIB7rCJAkEEEwECACsCGwMGCwkIBwMCBhUIAgkKCwQWAgMBAh4BAheA
AhkBBQJY6yUkBQkHiHFQAAoJEPTL1b1noPGHADwP/1HSmPK4mTyB/dfXbsMRlGlr
fLcVg/fN88m9iiMPOzwt14laKCzj5BaJKEngrmtiObl9Nr0khy6H4GVjQRQDrLmQ
ZoutOxlPr/nvwS8L0TMwkEiFgsFV0xZ+z8VfWFK6bpTkqQiC296qLwIMHW/XZHOD
Dz2dG0Ow1r8Vd/mCmZaGPS+Gizh7GcDPPnofhXu4JIEQnzlYNe10hoNvhhQGs46v
HgytuW6UElikyXd2pDfnhPc4oOZUqK7nJ+FRdATLP21pQvSos5iOBKr9O/FrOXS+
68z91ZrTHUWg5H+TyAfn7Sqe7xShgbZli9TaWmaJHGeQf9ED0Dw3NN1J261yTG5C
PhW+giB6+mi6E8H2cA/QSWYw/r874eaZg27IPtUaywzCLViyPS6LyhWM19vnWvVb
3cT5CTx7bPoqrKaZB+MRgg+xvwQIj3hQR2AY1gl/LeZ/UpeE/G5LZIJnrMH64OaC
EoYPF6YIcpgFYpu3Bpx95AUkc3mhYxnPIxNdkPltfyMSxVSf5HtfazFTLb075WVW
kYSwTLKHRm0pBoe1aXqvzIuYwKXIve+jQAJ7vej7C9k5I9LB7620ImUz3+9gShIT
NYsG+m0HYy+BK6bN8Q39rj8+e5htQn6Rysft3Wdv/9sPo43iG5Tynyu7k+itu+1a
Tj4vHSnfxOiIYXHUEOW3iQJBBBMBAgArAhsDBQkDwmcABgsJCAcDAgYVCAIJCgsE
FgIDAQIeAQIXgAUCVTpnkQIZAQAKCRD0y9W9Z6Dxh9vlD/44DkOzBCSgwGRFwYZ3
shwogNUhSgwVYRL/YlnCMm6wAYTQuVnKLQ3/0plLQBB4BxB/Cp4DWnGOiQMBIzYZ
isW9nIIzSzBPGvzzJl8JUFMzaX7BexyFKLKA11LprbbuaDnz7ETx4077ojFYMi6a
JX58xaDv09/QKj36zSylVVSefZjFbBKnO4hcCF+34x8QUd2sXpPJD5G6gEAx7PNH
O/3gCsBvpsSsMZ2wCTWeJ4EvG/nJcRatj4Hrh3DWQMZJgd7siEF+6Y2BiIJCfJKf
6F6tCPRvvTY/JpqCaYPVnOa5RiIsoP9kE+b4VkSOTj241B3CoD3MLX0JkLGsYMsn
w5i+efs0f7YwZmXpEk+jOK6Cpe9Ixnfgdvyk+ahZ6VxfApVMaVq2YDKdzLpevLm6
6eaAcoDm/3co8+ZwRqYYZl9nHGNLKfxioJc8Z1wKCiilPjZUBq7UiQ19wydGqvH0
EGVuzbUM2vdFRgj4QkHB7PZJbveNT+XevP3IVOQLF71sFI4I0DlVzbP469HqIIK5
iDTvutFiky199fOnm1gtlu3mc6Bnl/n5pOVkFfP3h+OGtA8juqtpTk+An2QagkpY
aiRDTDGiOVepCfA7t2etdOJdtEP+UW8xUMeW/nOrYmAkwa3c9x5Jkc3FsLcj1AwX
XnZVvd2mpp0YRlt8Pw+8Db8h1bQtR2lvdmFubmkgUGVsbGVyYW5vIDxldmlsYWxp
djNAZ2xvYmFsZWFrcy5vcmc+iQJVBBMBCAA/AhsDBgsJCAcDAgYVCAIJCgsEFgID
AQIeAQIXgBYhBMSb5HcGnWqWfoKpZPTL1b1noPGHBQJmJRJ5BQkWEdG0AAoJEPTL
1b1noPGHd+wQAKQmuAVYc5tXMm97DZtk39i3F0tNP84Y4AIR8u5UijFRC9t9d6Xs
tg1k/ULCiJzYSdwz1zAp7wE28rqygxYwPNu+oQDoGUgCYC45DnAS1FgJ+3U15Y2p
apra0qGXnfl/aR7LA+7Z1cMOSf0NPzWSTf6CO/fEmXO30uXsxEj2fE/fhZ6eAp5d
svK/oJdx9QsjRpHdkW/4RHsQzknAZWvDSMyg25poOEIaRGE/n0BUHTEynaB0waJs
VMmSl6h2XQ4oyBiH0kTn8WTWFcwqsLnipOAxBbq05RpLXgnoeDjURm7MeEXPMBRk
AfKq6djH1jPxfOiNVqZbqH+C4N9KANvtVetj0orwlQxYbNZpPvvssNUnt0EoErdw
Lc3983OufgONmj3KBDcUyeiH5Z8dxryS6BYX7iQaYnWNzqA7Usj2MmgrWK6tuSUs
IJwk1J0Z6Wv7usDatsbBccA6s+yjOHyyntWJ4Q7DNLi6vALRvaXoZscogHOeotpu
81cPMSuQyKVfjB60TiHQ1IIZr/v5UxhnWxkMpfPWywQV6CDyI3PYwaTY5mVTGNlg
azcAO5zbD9ctEd7vFXsXNopgh1jCRrhbksau94mAEXwX0SKVDzp63eZnNFzqDYsO
AZm6l8xZeuNGL/YSTqO0Fe0XBSie/swZrIN2lic6VwNa8nchTNMGrfldiEYEEBEI
AAYFAlWuMFkACgkQuEIJPcZ2VDDANwCgj54QNujlDoCV3/12LAAIIuPH2v4AnRl/
YEaVVs2HfJW0gYot1qlaRKu0iQI+BBMBAgAoAhsDBgsJCAcDAgYVCAIJCgsEFgID
AQIeAQIXgAUCWOslJAUJB4hxUAAKCRD0y9W9Z6DxhxMMD/436UzK0xqQKyjxEkey
3Zz26HFqNTAE+B81roIvKIhpO9Of+jnQdsE5H2VZReMqOQMgC310Ix7nRjtB9ktX
707+6QljIHt40gjSI6pM9WCrMM8wBPAhCCB1BJGODerhZio7C0FAWxoZXuriMRTn
hmgL5MsUECOWvi3sd6TbicayZDErFvwgbpO4ILbDMUhFxy0/F1NcohkJRY8PP+X3
G6PL8NK/tOy04jEU5vSoTAU95u4UTgPLvQwfAShkSfLKifJilNDNFx3Zfx6dxu1b
bBcIg+Ex1t/96mptWp4pKPKZ5GjDnbWX364BBEeiPITtRPwvHCtKwOWHWRxJs7sV
DCcnhVRGlQGC4j8i0kLxjEGiQixucLPelQQM89Y2g63AVial9IwO7+GJEMhYl3ER
g4gSCYVUW8XOV+iUGgKOFG/XGK3p33fxnJUPHHqi2lBPUSvqm2lK+jBeaqvWNk2Z
+CN0RDCYGinbXkfO/UGJqXxZeFBNMrDyR9T/H/FqBB4TDNyA+6qEhCNUql+MIBg/
1MglvM/gHtW+zF3hK7N0j8B3n2CfuKg+3s7ZsGSbDbbEzHaKswwO3OB2pl4FVPsL
1YE3SR4IbdGQYK4RxC3OaD1BkUrQ/eFWHclDYlH9I8rgmXs3JhifRWY1guX/MFYL
ID8YhiLfTF2Ribe8AZ96CGL9D4kCPgQTAQIAKAUCVTpnpQIbAwUJA8JnAAYLCQgH
AwIGFQgCCQoLBBYCAwECHgECF4AACgkQ9MvVvWeg8YfnJw/+K05izvh4rJ+QRPOu
rLnsTe/oGvpLSRrrdXUkIulc1ucrYPh9GKPODbqstfoAPqfitRawQwTo9o8ysHNq
FpkGm95gqmktH5eVf3Twey+g0TixdO3u7LP4JFYVAYOkJwEUCBC+ub9svTi+jHkX
Qw7AunF9DdX00BiXZejRVbI5UU1H6tYfCK8OYGTiz35ssfEOg0QDnXvtao4qkmEm
nwf9C9MRBdCxtzFddifKFixtH5fSf49chtloGPWMi5neyYMFvIyg00bLeaWlhBLT
NTs3m9XKdqdmCjmjFNr5Ew6TZHUqJEb/jA1BFHzFnojCG++Bto2hvqQsmbZrzowF
/CA7ZBm+8P5ujGlt9VQc6apv5WhnCm9uNeorxI8oK/9hdGkXOkJVFiDQQw0hKIrZ
Fgnh4ForobJrbdIXCq1Ow0H2t96kzLXazfFgOZhs0G+KKe4BLux8h4Vxhm9S6axr
6acNltjFnTCpprhlQ5qeuogULlTCaH/9EwF0vLDgkpn7HYvDQ52cfYczq7ziG27w
QPQajeV0G7w37joY0nOFJU70LkO8rmHcwSJ0DNMObQJje23T/baXXEUVQ71KseoQ
ejGYkH4WTJ+8Av3Sv35g1MrM44a5VJZiVZ7ETwSgnIZvpSKMSI7Zg7GlnA9VLlxR
xo2MbMTzhoSxR/NLKOiwe4XWp8e0Nkdpb3Zhbm5pIFBlbGxlcmFubyA8Z2lvdmFu
bmkucGVsbGVyYW5vQGdsb2JhbGVha3Mub3JnPokCVAQTAQoAPgIbAwULCQgHAgYV
CgkICwIEFgIDAQIeAQIXgBYhBMSb5HcGnWqWfoKpZPTL1b1noPGHBQJmJRJ5BQkW
EdG0AAoJEPTL1b1noPGHvKoQAJ26Cbo+FjSgPVnpxSCwQlZu8l+IqHjwgKXBKvYn
aqn3NnhEDEZxQo9vKvO0pedeGTT8W6bQXq+55yyT6nCSoKPzil1fvZyCsdBz4htd
c7NP0Y+9v7w91IXDGLzOzdTT6A92bdJG1alO5tzpZ41sR5AtnRH1vxiymnw8JV1F
5/DicD0zpJ+Dp3Rv/LLFf7luEYqTGtrWcjjU6roGCkvFq4zd1FFikJvq/QoWUxd9
7xL5zwzRZrtQb5+1DOLZYSEFvrgkPUVEPiL9jynBiNW4s/iRGusUhIFNq3HQePm3
BrgVpU43UU6c5mGWWpcmuQNRrT6nYUACosmwTa10J1zJR/2sXnD2GeHOJap9egwV
ZTJC5TAj9ifSh8HqzcZsO7890ybrZztRolZEJZBFIj5bo5RCxv/txKVsMParCYmF
N1qqVJPytz0x2OJxolhRurcCF87x6O34d7Kr3hR02JWl1DAk2qtb3Hs68+RERAVh
KuHfBKr95cpgTNkITXZySm94PePkmlnFoljkBZjW0SmqyjlISrWqIEJR1X8Ww1oX
PCUuagAkljKbsI15nDTfmLVEfa3Zq6jinGwiU+GZEgDVWtRS1wXCD/qQNFK0GLGg
HHBxbnXMY+ZO1oxHl/KxbhWv6BLKH7dQUoPpe3MPfbwnuifEvHb+OetCArXOFLJ3
7QN8uQINBFUlGs8BEAC2SPP+0eJ9rUY2sjIAvzTkIb9/B4Zc9c5jYElPLF6DNOMj
D9dvNQwNznzaHkttHAa4c2F4RVpBrocQmPk+kb+2DysXN6Va+HKc+iHQj9SwVuPb
0FPINcOuzqd7BB2A3/Tqb4zskmc/PQRqxn32260lOJcriG9DIGVZb8Hj1VKrQTn9
cna4SvrTytFJuatbE8Wi96HatoQ7II0Hru+576babEZVTg1QAnoHWAOeZn6OMhod
86v1kko3dtYp5mEcmffoX2rImtcgD1yEOelODGLQuq5tV/u5ntsRD3PhKCD2E2DO
zN7LAy4NeUB+8DIggZDUM21pbmTAbP8T/+MxBgd3Ka4rdUO2Yl3oKMLmfm4CvSxM
cD0jJzYLvQQ5H5A6PvwE5QHXNAqWwr1B8EItKIKuffc3DTAs3IHsSVwJKdIn/DlK
BH+COP1OhDBrDsj7I5WwbfviL+zk4dGb1YgUsvDfo1tHBFWNRtjaXyjNilLD7Oln
rxjmgWfyKWtMZ4KZBXscYxlf/w0yipNFgkgOyhwntW0WDl68J9yZmLEg2xD5qk9s
WjjgjDD/KzyANroAO/uOiIK2SDirMUcFyV4cpw+oMetFZTcxL1QArTbV1lZU3TEK
gPRW/2T6vYo8dltVKhW+MQUlWoNC689XpyQRHBDwk6ya+4hGIOZxJheD4clh2QAR
AQABiQI8BBgBCAAmAhsMFiEExJvkdwadapZ+gqlk9MvVvWeg8YcFAmYlErgFCRYR
0bMACgkQ9MvVvWeg8YfZ1w//dkNj5GVWq3ulSXWvJxp/UK5IbJPLLHgD/vnuGWYJ
2AJ4EFnaU/4RWGHDIcdbzGbxQe3g5SbX9lQVHsOlNqyS7RMOxBYvpwHYa42qJm5i
Xcct2ta9TJK0Zsb4st09rocBWKUcY//5STK4W2JyDJ/3mxDp3McmbtaosOq6dwbR
8Uh5q3cgpF/eE+E096ErcPNbrM3nKW6tineRDXA+aU3rCgmwe9VbvQ2UTax5yEmF
DQDxpJjV3C4zleIPUObNAKUsYlueHEK3qsu5GxROUtk7yPo2VRfiZXWI+3jVy7oZ
CsA7D5Kmxu+XVEcOZrHa2eLZau+cScf6PwghWctk7AD6A0E/PBMMQ48xfc/ukeXC
PnUeM7NHM6Ow7MuZ1egSi1nLQwjceqKGWPq9M1FTZ2OXjIGrPfTMTSqkJDSDS/FV
dRN1GkoGD9vFyNevSU2jU45J/eJx6UFBVhE2osgNFgDz0307TU/wrY+owTBrGdzb
Znub4BElLbomKS4YU5MW5hTyxbNuR3VosAxdDNTmob2OH04SQ8dkCcbkl4O/ymKa
hNfjd/KwRKuOoO24VA3+5qZaXdVlAgBhGw+j/xNqMdxlps4vK/nfOg3hqyaMbNSz
4bOM1yMtTn64/gNlRSDJHX88bvYS4vKTfZrBdW5y/Kb7GCMfgI+ximX1wplWTWRh
Vq4=
=+KNZ
-----END PGP PUBLIC KEY BLOCK-----
